X:1
T:Shines Our Morning Star
T:W. A. Post
T:Shines Our Morning Star
T:Public Domain
T:Public Domain
C:W. A. Post
Z:Public Domain
%%score ( 1 2 ) ( 3 4 )
L:1/8
M:6/8
K:C
V:1 treble 
V:2 treble 
V:3 bass 
V:4 bass 
V:1
 [Ec]2 [Ec] [EB]2 [CE] | [EA]3 [EA]3 | [EG]2 [EA] [EG]2 [^A,E] | [B,F]6 | [FB]2 [FB] [FA]2 [B,D] | %5
w: 1.~Shines the bless- èd|sun- light,|East- er morn- ing|breaks;|Un- to life and|
w: 2.~Car- ol forth His|prais- es,|twine your gar- lands|gay;|See, the tomb of|
w: 3.~Glows the bless- èd|sun- light|in our hearts to-|day,|Roll- ing clouds of|
 [FA]3 [FA]3 | [FG]2 [FA] [EG]2 [DF] | [CE]6 | [Ec]2 [Ec] [EB]2 [CE] | [EA]3 [EA]3 | %10
w: glad- ness|all the world a-|wakes;|Now has come sal-|va- tion,|
w: dark- ness|gleams with Heav- en’s|ray;|Tell the sweet- est|mes- sage|
w: sor- row|from our souls a-|way;|Gleam- ing out with|beau- ty|
 [EG]2 [GA] [GB]2 [^Fc] | [Gd]6 | [^Fd]2 [Fd] [Fc]2 [FA] | [Gd]3 [GB]3 | [^FA]2 [Ac] [GB]2 [FA] | %15
w: ev- er full and|free,|Christ our Lord has|pur- chased|bless- èd li- ber-|
w: known to mor- tal|men,|Je- sus, King and|Sav- ior,|lives and reigns a-|
w: thro’ the skies a-|far,|Shines a- new the|ris- en|Christ, our Morn- ing|
 (G3 [FG]3) ||"^Refrain" [EG]3 [EA]3 | [FA]2 [FG] [FG]2 z | [FB]3 [Fd]3 | [Fd]2 [Ec] [Ec]2 z | %20
w: ty. *|||||
w: gain. *|Him, from|the grave! Praise|Him, strong|to save! Songs|
w: Star. *|||||
 [Ge]3 [Gc]3 | [Ac]2 [GB] [FA]2 z | [EG]2 [Ec] [Fc]2 [FB] | [Ec]6 |] %24
w: ||||
w: of glad-|ness raise, Ev-|er- last- ing praise.||
w: ||||
V:2
 x6 | x6 | x6 | x6 | x6 | x6 | x6 | x6 | x6 | x6 | x6 | x6 | x6 | x6 | x6 | G3 x3 || x6 | x6 | x6 | %19
w: |||||||||||||||||||
w: |||||||||||||||Praise||||
 x6 | x6 | x6 | x6 | x6 |] %24
w: |||||
w: |||||
V:3
 [C,G,]2 [C,G,] [C,G,]2 [C,G,] | [C,C]3 [C,C]3 | [C,C]2 [C,C] [C,C]2 [^C,G,] | [D,G,]6 | %4
 G,2 G, [G,B,]2 G, | [G,B,]3 [G,B,]3 | [G,B,]2 [G,B,] [G,C]2 G, | [C,G,]6 | %8
 [C,G,]2 [C,G,] [C,G,]2 [C,G,] | [C,C]3 [C,C]3 | [C,C]2 [C,CE] [B,,B,D]2 [A,,A,D] | [G,,G,B,]6 | %12
 [D,A,]2 [D,A,] [D,D]2 [C,D] | [B,,D]3 [G,,D]3 | [D,D]2 [D,D] [D,D]2 [D,C] | [G,B,]6 || %16
 [C,C]3 [C,C]3 | [D,B,]2 [D,B,] [D,B,]2 z | [G,D]3 [G,B,]3 | [C,C]2 [C,C] [C,C]2 z | %20
 [C,C]3 [E,C]3 | [F,C]2 [F,C] [F,C]2 z | [G,C]2 G, G,2 G, | [C,G,]6 |] %24
V:4
 x6 | x6 | x6 | x6 | G,2 G, x G, x | x6 | x5 G, | x6 | x6 | x6 | x6 | x6 | x6 | x6 | x6 | x6 || %16
 x6 | x6 | x6 | x6 | x6 | x6 | x2 G, G,2 G, | x6 |] %24

